X: 1
T: Twilight In Portroe
M: C|
L: 1/8
R: reel
K: Amaj
"A"A,2CE "D"DEFD|"E"E2GB "A"ABcA|"D"df~f2 "A/C#"edcA|"Bm"BAcA "E"BAFE|
"A"A,2CE "D"DEFD|"E"E2GB "A"ABcA|"D"df~f2 "A"edcA|1 "E"B2AB "A"cAA2:|2 "E"B2AB "A"cAAB||
|:"A"c2ec fcec|ABcA "E"BAFA|"A"~E3F "F#m"ABcA|"Bm"defg "E"aefe|
"A"c2ec fcec|ABcA "E"BAFA|"A"~E3F ABcA|1 "D"dfed "E"cAAB:|2 "E"dfed "A"cAA2||
%%text Transition: Backup plays BIG A7 chord; skip the pickups

